X:1
T:2 Konzertetüden
T:2 Konzertetüden
T:S. 145/2 "Gnomenreigen"
T:Franz Liszt
C:Framz Liszt
%%score { ( 1 3 ) | ( 2 4 ) }
L:1/8
Q:1/4=240
M:6/8
K:A
V:1 treble nm="Piano" snm="Pno."
V:3 treble 
V:2 treble 
V:4 treble 
V:1
!pp!"^Presto scherzando" z z{/F} .^E{/A} .G z{/c} (.B |{/d)} .c z{/f} .^e{/a} .g z{/c'} (.b | %2
!<(!{/d'} .c') z!<)!{/c'} .b{/d'} .c'!>(! z{/c'} (.b!>)! | %3
{/d'} .c') z{/c'} .b{/d'} .c' !fermata!z .c || %4
!pp!"^staccato e leggiero"{/[fa]} .c' z{/[Ac]}.f{/[Ad]} .f z{/[DF]}.B | %5
{/[FA]} .c z{/C}.F{/A,} .C z{/C} (.F |{/[C^E])} .G z{/[CE]} .G{/[CF]} .A z{/[CF]} .A | %7
{/^D} .F z{/D} .F{/C} .^E z({/^e} .g |{/[fa])} .c' z{/[Ac]}.f{/[Ad]} .f z{/[DF]}.B | %9
{/[FA]} .c z{/C}.F{/A,} .C z{/C} (.F |{/[C^E])} .G z{/[CE]} .G{/[CF]} .A z{/[CF]} .A | %11
{/^D} .F z{/D} .F{/C} .^E z"_R.H."{/^e} .g | %12
 (!>!a/4.^e/4) z/ z (!tenuto!A/4.^E/4) z/ (!tenuto!E/4.C/4) z/ z (!tenuto!^e/4.a/4) z/ | %13
 (!tenuto!f/4.d/4) z/ z (!tenuto!F/4.D/4) z/ (!tenuto!F/4.A/4) z/!<(! z!<(! !tenuto!f/4.^a/4!<)! z/ | %14
!p! !tenuto!b/4.f/4 z/ z !tenuto!B/4.F/4 z/ !tenuto!^^F/4.^D/4 z/ z !tenuto!^^f/4.b/4 z/ | %15
 !tenuto!g/4.e/4 z/ z !tenuto!G/4(.E/4 z/!<(! !tenuto!G/4.B/4) z/ z !tenuto!g/4.^b/4 z/!<)! | %16
!mf! c'/4.g/4 z/ z !tenuto!G/4.^E/4 z/"_cresc." (!tenuto!A/4.F/4) z/ z !tenuto![fa]/4.^b/4 z/ | %17
 c'/4.g/4 z/ z !tenuto!G/4.^E/4"_cresc." z/ (!tenuto!A/4.F/4) z/ z !tenuto![fa]/4.^b/4 z/ | %18
 !>!c'/4.g/4 z/ z"_do rinforzando"{/G} .^E !^!c'/4.a/4 z/ z{/A} .=F!<)! | %19
!ff! !^!c'/4.a/4 z/ z{/A} .=F{/A} .^c{/c} .=f{/^f} .a || %20
[M:9/8]!p![Q:1/4=240]"^Un poco più animato."!8va(! ((c'/e'/)c''/)e'/c'/b/ a/c'/a'/c'/a/g/ f/a/f'/c'/g/a/ | %21
 b/^d'/b'/f'/b/g/ f/b/f'/b/f/e/ (^d/e/)(f/g/a/b/) | %22
 c'/e'/c''/e'/c'/b/ a/c'/a'/c'/a/g/ f/a/f'/c'/g/a/ | %23
 b/^d'/b'/f'/b/g/ f/b/f'/b/f/e/ (^d/e/)(f/g/a/b/) | %24
 (c'/e'/)c''/e'/a/b/ c'/e'/!<(!c''/e'/^b/c'/ c'/e'/c''/e'/^b/c'/!<)! | %25
!mp! c'/e'/c''/^a'/=g'/e'/ c'/^a/=g/e/f/(g/^g/=a/^a/b/)(^b/c'/ | %26
 d'/)=f'/d''/f'/!<(!_b/=c'/ d'/f'/d''/f'/d'/^c'/ d'/f'/d''/f'/d'/c'/!<)! | %27
!mp! d'/=f'/d''/b'/_a'/f'/ d'/b/_a/=f/!<(!=g/_a/(=a/^a/b/)(=c'/^c'/d'/)!<)! | %28
!mf!"_cresc." ^d'/^f'/^d''/f'/d'/c'/ b/^d'/b'/f'/b/^a/ z/ (b/^g'/e'/)(b/c'/) | %29
"_cresc." ^d'/^f'/^d''/f'/d'/c'/ b/^d'/b'/f'/b/^a/ z/ (b/^g'/e'/)(b/c'/)"_do" | %30
!f!"_cresc." ^d'/f'/^d''/f'/d'/f'/ e'/=g'/e''/g'/e'/g'/ ^e'/^g'/^e''/g'/e'/g'/ | %31
 z/ (a'/=f'/) (=f''/_b'/)f'/!<(! f''/=b'/f'/ f''/=c''/f'/ f''/^c''/f'/ f''/!<)!d''/f'/!8va)! || %32
[M:2/4]!ff![Q:3/8=80]!8va(! z/ (^g'/4b'/4!^!^e''/4)=e''/4^d''/4=d''/4 z b'/4^a'/4=a'/4g'/4 | %33
 z ^e'/4=e'/4^d'/4=d'/4!8va)! z b/4^a/4=a/4g/4 | z ^e/4=e/4^d/4=d/4"_dim." z B/4^A/4=A/4G/4 || %35
[M:6/8]!p![Q:3/4=80] z2 z (.=D.^E.G | .C) z{/F} .^E{/A} .G z{/c} .B | %37
{/d} .c z{/f} .^e{/a} .g z{/c'} (.b |!<(!{/d'} .c') z{/c'} .b{/d'} .c' z!<)!{/c'} (.b | %39
{/d'} .c') z{/c'} .b{/d'} .c' !fermata!z .c | %40
"^a tempo (come prima)"!pp![Q:3/4=80]{/[fa]} .c' z{/[Ac]}.f{/[Ad]} .f z{/[DF]}.B | %41
{/[FA]} .c z{/C}.F{/A,} .C z{/C} (.F |{/[C^E])} .G z{/[CE]} .G{/[CF]} .A z{/[CF]} .A | %43
{/^D} .F z{/D} .F{/C} .^E z({/^e} .g |{/[fa])} .c' z{/[Ac]}.f{/[Ad]} .f z{/[DF]}.B | %45
{/[FA]} .c z{/C}.F{/A,} .C z{/C} (.F |{/[C^E])} .G z{/[CE]} .G{/[CF]} .A z{/[CF]} .A | %47
{/^D} .F z{/D} .F{/C} .^E z"_R.H."{/^e} .g | %48
 !>!a/4.^e/4 z/ z !tenuto!A/4.^E/4 z/ !tenuto!E/4.C/4 z/ z !tenuto!^e/4.a/4 z/ | %49
 (!tenuto!f/4.d/4) z/ z (!tenuto!F/4.D/4) z/!<(! (!tenuto!F/4.A/4) z/ z !tenuto!f/4.^a/4 z/!<)! | %50
 !tenuto!b/4.f/4 z/ z !tenuto!B/4.F/4 z/ !tenuto!^^F/4.^D/4 z/ z !tenuto!^^f/4.b/4 z/ | %51
 !tenuto!g/4.e/4 z/ z !tenuto!G/4(.E/4 z/ !tenuto!G/4.B/4) z/!<(! z !tenuto!g/4.^b/4!<)! z/ | %52
!mf! !tenuto!c'/4.g/4 z/ z"_cresc." !tenuto!G/4.^E/4 z/ (!tenuto!A/4.F/4) z/ z !tenuto![fa]/4.^b/4 z/ | %53
 !tenuto!c'/4.g/4 z/ z !tenuto!G/4.^E/4 z/ (!tenuto!A/4.F/4) z/ z !tenuto![fa]/4.^b/4 z/ | %54
 !tenuto!c'/4.g/4 z/ z{/G} .^E !^!c'/4.a/4 z/ z{/A} .=F | %55
!ff! !^!c'/4.a/4 z/ z{/A} .=F{/A} .^c{/c} .=f{/^f} (.a || %56
[K:Bb][M:9/8]!p![Q:1/4=240]"^Un poco più animato."!8va(! (d'/)f'/d''/)f'/d'/c'/ b/d'/b'/d'/b/a/ g/b/g'/d'/a/b/ | %57
 c'/=e'/c''/g'/c'/a/ g/c'/g'/c'/g/(f/ =e/f/)(g/a/b/)c'/ | %58
 d'/f'/d''/f'/d'/c'/ b/d'/b'/d'/b/a/ g/b/g'/d'/a/b/ | %59
 c'/=e'/c''/g'/c'/a/ g/c'/g'/c'/g/(f/ =e/f/)(g/a/b/)c'/ | %60
 d'/f'/d''/f'/b/c'/!<(! d'/f'/d''/f'/d'/^c'/ d'/f'/d''/f'/d'/c'/!<)! | %61
 d'/f'/d''/=b'/_a'/f'/ d'/=b/_a/f/!<(!g/a/=a/(_b/=b/(c'/)^c'/d'/)!<)! | %62
 ^d'/^f'/^d''/f'/=b/^c'/ ^d'/f'/d''/f'/^^c'/d'/ d'/f'/d''/f'/c'/d'/ | %63
 _e'/^f'/e''/=c''/a'/f'/ _e'/c'/a/^f/^g/a/^a/=b/^b/^c'/e'/^d'/ | %64
"_cresc." =e'/g'/=e''/g'/e'/d'/ c'/e'/c''/e'/c'/=b/ z/ (c'/a'/(f'/)c'/)d'/ | %65
"_cresc." =e'/g'/=e''/g'/e'/d'/ c'/e'/c''/e'/c'/=b/ z/ (c'/a'/(f'/)c'/)d'/"_do" | %66
"_cresc." =e'/g'/=e''/g'/e'/g'/ f'/_a'/f''/a'/f'/a'/ ^f'/=a'/^f''/a'/f'/a'/ | %67
 z/ (_b'/^f'/) (^f''/=b'/^f'/)!<(! f''/c''/f'/ f''/^c''/f'/ f''/d''/f'/!<)! f''/_e''/f'/ || %68
[M:2/4][Q:1/2=80]!ff! z/ a'/4c''/4^f''/4=f''/4=e''/4_e''/4 z c''/4=b'/4_b'/4a'/4 | %69
 x ^f'/4=f'/4=e'/4_e'/4 x c'/4=b/4_b/4a/4!8va)! | x"_dim." ^f/4=f/4=e/4_e/4 x c/4=B/4_B/4A/4 | %71
!p! x2 (3(._E(.^F).A) | x2 (3(.=C(._E).^F) | x2[K:bass] (3(.A,(.C)._E) | %74
!>(! (3!tenuto!._A,.C.E (3!tenuto!.G,.C.E | (3!tenuto!.^F,.C.E (3!tenuto!.=A,.C.E!>)! || %76
[M:6/8][K:treble][Q:3/4=80]"^sempre presto" z2 z .[CG] z z | .D z z z2 z | %78
"_sempre stacc. e" z2 z[K:bass] .[G,C] z!pp! z | .[^F,A,] z z z2 z | z2 z[K:treble] .[CG] z z | %81
 .D z z z2 z | z2 z[K:bass] .[G,C] z z | .[^F,A,] z z z2 z | z2 z!pp! [^F,B,][F,B,][F,B,] | %85
 .[E,G,] z z .[G,=B,] z z | z2 z [=E,^G,C][E,G,C][E,G,C] | .[F,A,] z z .[F,A,^C] z z | %88
 z2 z [^F,B,D][F,B,D][F,B,D] | .[E,G,] z z .[G,=B,E] z z | (.[_A,C] z z) [^G,=B,=E][G,B,E][G,B,E] | %91
 .[=A,C] z z .[A,^CF] z z | (.[B,D] z z)!pp! (.[=A,C^F] z) z | z2 z[K:treble] [E^FA] z z | %94
 z2 z [^FAc] z z | z2 z [Ae^f] z z | ([c^fa] z) z!8va(! ([fac'] z) z | %97
 [ac'^f'] z z [c'f'a'] z z!8va)! | z6 | z6 | z6 | z2 z z!8va(! (^f'/^g'/a'/=b'/) || %102
[K:A]!pp! .[a'c''].f'.c' .[d'f'].a.b!8va)! | .[ac'].f.c .A.c.[Af] | .[cg] z .[^EG].[FA] z .[ca] | %105
 .[^df] z (.[^DF].[^EG]) z (3(c/^e/g/) | .[ac'].f.c .[df].A.B | .[Ac].F.C .A,.C.[A,F] | %108
 .[CG] z[K:bass] .[^E,G,].[F,A,] z[K:treble] .[CG] | %109
 .[^DF] z[K:bass] (.[^D,F,].[^E,G,]) z[K:treble]"^sempre staccato" (.C | .[^EA]).C.A, .[C^E].A.a | %111
 .[df].A.[DF] (.A,.[DF]) (.[^A,^A] | .[FB]).^D.B, .[^D^^F].B.b | .[eg].B.[EG] (.B,.[EG]) .[^B,^B] | %114
"^poco" .[CAc].^E"^a".C .[D_Bd]"^poco".^F.D |"^cresc." .[^D=B^d].=G.E .[E^Be].^G.E | %116
 !tenuto![^Ec^e].A !tenuto![^Fdf]._B !tenuto![=G^d=g].=B | %117
"^molto" !tenuto![^Ge^g].^B"^cresc." !tenuto![A^ea].c"^e" !tenuto![^Af^a].[=B=g=b] | %118
"^string." .[^B^g^b].[cac'].[d^ad']!8va(!!<(! .[^d=b^d'].[e^be'].[^ec'^e']!<)! | %119
!>(! .[fd'f'].[=g^d'=g'].[^ge'^g']!>)! .[=a^e'=a'] z z || %120
[K:F#][M:9/8] a/"^vivacissimo"!ff!c'/a'/c'/a/g/ f/a/f'/a/f/e/ d/f/d'/b/d/e/ | %121
 g/b/g'/d'/g/f/!8va)! d/g/d'/c'/g/d/ c/(d/c/^B/c/)(g/ | %122
!8va(! a/)c'/a'/c'/a/g/ f/a/f'/a/f/e/ d/f/d'/b/d/e/ | %123
 g/b/g'/d'/g/f/!8va)! d/g/d'/c'/g/d/ c/(d/c/^B/(c/)g/) | %124
!ff!!8va(! a/c'/a'/c'/f/g/ a/c'/a'/c'/^^g/a/ a/c'/a'/c'/g/a/ | %125
 a/c'/a'/^^f'/=e'/c'/!8va)! a/^^f/=e/c/A/^^F/ z/ ^^F/A/(c/.^^f) | %126
!8va(! b/=d'/b'/d'/=g/=a/ b/d'/b'/d'/b/^a/ b/d'/b'/d'/b/a/ | %127
 b/=d'/b'/^g'/=f'/=d'/!8va)! b/^g/=f/=d/B/G/ z/ G/B/(=d/ .g) | %128
!8va(! ^b/^d'/^b'/d'/b/a/ g/b/g'/b/g/^^f/ ^e/g/(e'/c'/)(g/a/) | %129
 ^b/^d'/^b'/d'/b/a/ g/b/g'/b/g/^^f/ ^e/g/(e'/c'/)(g/a/) | %130
 ^b/d'/^b'/g'/b/d'/ b/d'/b'/f'/b/d'/ c'/=e'/!<(!c''/^^f'/c'/e'/!<)! | %131
!<(! =d'/^e'/=d''/g'/d'/e'/ ^d'/f'/^d''/=a'/d'/f'/ =e'/^^f'/=e''/!<)!^a'/e'/f'/ | %132
"^il più Presto possible" ^e'/g'/e''/d''/c''/^b'/ =b'/a'/c''/b'/^^f'/g'/ a'/g'/^^d'/e'/a'/g'/ | %133
 ^f'/a'/d''/c''/ c'/d'/b'/a'/ a/c'/(g'/f'/ (!>!^b/)c'/)g'/f'/d'/f'/ | %134
 e'/g'/e''/d''/c''/^b'/ =b'/a'/c''/b'/^^f'/g'/ a'/g'/^^d'/e'/a'/g'/ | %135
 ^f'/a'/d''/c''/ c'/d'/b'/a'/ a/c'/(g'/f'/ (!>!^b/)c'/)g'/f'/d'/f'/ | %136
 e'/g'/e''/d''/c''/^b'/ =b'/a'/(c''/!<(!b'/(^^f'/)g'/!<)!!>(! b'/)a'/!>)!g'/^f'/e'/!<(!d'/!<)! | %137
!mf! g'/f'/e'/d'/!<(!c'/b/!<)! e'/d'/c'/b/!<(!a/g/!8va)!!<)!!>(! b/a/!>)!g/f/!<(!e/d/!<)! | %138
!>(! g/f/!>)!e/d/!<(!c/B/!<)!!>(! e/d/!>)!c/B/!<(!A/G/!<)!!>(! B/A/!>)!G/F/!<(!E/D/!<)! || %139
[M:6/8]!>(! G/F/E/!>)!D/C/D/ E/F/G/A/B/c/ |!mf!!<(! d/e/f/g/a/b/!8va(! c'/d'/e'/f'/g'/a'/!<)! | %141
!fff! .[bb'].[^b^b'].[c'c''] .[d'd''].[c'c''](.[e'e''] | .[f'f''])!8va)! z z!p! z2 z | %143
 z2 z!p! [B,C][B,C][B,C] | .[A,C] z z .[A,F] z z | z2 z [=D^EG][DEG][DEG] | .[CFA] z z .[CAc] z z | %147
 z2 z [=GAc][GAc][GAc] | .[FAc] z z .[FAf] z z | z2 z [=d^eg][deg][deg] | [cfa] z z .[cac'] z z | %151
 z2 z!8va(! [^eg^e'] z z | z2 z [faf'] z z | z2 z [ge'g'] z z |!ppp! z6 | %155
 !arpeggio![=a=d'^e'=a'] z z z2 =d'/^f'/ |!pp! .[^a'=d''].f'.=d' .[^ad'].f.=d!8va)! | %157
 .[ac'].f.c .[fa].c.A | .[^a=d'].f.=d .[^Ad].F.=D | .[Ac].F.C .[FA].C.A, | %160
 .[^A=d].F.=D[K:bass] .[^A,=D].F,.=D, | (.[A,C].F,.C,)!pp! ([^A,=D]F,=D, | %162
 [A,C]F,C,) ([^A,=D]F,=D, | [A,C]F,C,) ([^A,=D]F,=D, | [A,C]F,C,)!ppp! .F,.A,.C | %165
[K:treble] .F.A.c .f.a.[fc'] |!8va(! .[af'] z z .[c'a'] z z | .[f'c'']!8va)! z z !fermata!z2 z |] %168
V:2
 z"_L. H. sopra"{/D} (.C z) z{/A} .G z | z{/d} (.c z) z{/a} .g z | %2
 z!ped!{/g} (.b z)!ped-up! z!ped!{/^e} .g"^simile" z!ped-up! | %3
"^più dimin." z!ped!{/g} (.b z)!ped-up! z!ped!{/!fermata!^e} (.!fermata!g z)!ped-up! || %4
!ped! z{/[cf]} .a z!ped-up!!ped! z{/F} .A z!ped-up! | %5
!ped! z{/F} .A z z[K:bass]{/F,} (.A, z)!ped-up! | %6
!ped! z{/C,} .C z!ped-up!!ped! z{/F,} .C z!ped-up! | %7
!ped! z{/A,} .^B, z!ped-up!!ped! z[K:treble]{/G} (.c z)!ped-up! | %8
!ped! z{/[cf]} .a!pp! z!ped-up!!ped! z{/F} .A z!ped-up! | %9
!ped! z{/F} .A z z[K:bass]{/F,} (.A, z)!ped-up! | %10
!ped! z{/C,} .C z!ped-up!!ped! z{/F,} .C z!ped-up! | %11
!ped! z{/A,} .^B, z!ped-up!!ped! z[K:treble]{/G} (.c z)!ped-up! | %12
"^sotto"!ped! z{/A} .c z z{/A} .c z!ped-up! | %13
!ped! z{/F} .A z"^simile" z!ped-up! (!tenuto!^A/4.d/4) z/ z | %14
!ped! z{/B} .^d z!ped-up!!ped! z{/B} .d z!ped-up! | %15
!ped! z{/G} .B z z!ped-up!!ped! (!tenuto!^B/4.e/4 z/) z!ped-up! | %16
!ped! z{/c} .^e z!ped-up!!ped! z({/^B} .^d z)!ped-up! | %17
!ped! z{/c} .^e z!ped-up!!ped! z({/^B} .^d z)!ped-up! |!ped! z{/B} .^e z z{/c} .=f z!ped-up! | %19
!ped! z{/c} .=f z z2 z!ped-up! || %20
[M:9/8]!ped! [EAc]"^subito, giocoso non legato"[EAc][EAc]!ped-up!!ped! [EAc][EAc][EAc]!ped-up!!ped! .[EAc] z z!ped-up! | %21
!ped! [EFA^d][EFAd][EFAd]!ped-up!!ped! .[EGB=d] z z!ped-up! z2 z | %22
!ped! [EAc][EAc][EAc]!ped-up!!ped! [EAc][EAc][EAc]!ped-up!!ped! .[EAc] z z!ped-up! | %23
!ped! [EFA^d][EFAd][EFAd]!ped-up!!ped! .[EGB=d] z z!ped-up! z2 z | %24
!ped! [Ace][Ace][Ace]!ped-up!!ped! [Gce]!<(![Gce][Gce]!ped-up!!ped! [=Gce][Gce][Gce]!ped-up! | %25
!ped! !arpeggio!.[E^Ac=g] z z!ped-up!!ped! .[F^Ace] z z!ped-up! z2 z | %26
 [_Bd=f][Bdf][Bdf] [Adf][Adf][Adf] [_Adf][Adf][Adf] | !arpeggio!.[=FBd_a] z z .[=GBd=f] z z z2 z | %28
!ped! [B^d^f][Bdf][Bdf]!ped-up!!ped! [Bdf][Bdf][Bdf]!ped-up!!ped! .[B^eg] z z!ped-up! | %29
!ped! [B^df][Bdf][Bdf]!ped-up!!ped! [Bdf][Bdf][Bdf]!ped-up!!ped! .[B^eg] z z!ped-up! | %30
!ped! [B^df][Bdf][Bdf]!ped-up!!ped! [Be=g][Beg][Beg]!ped-up!!ped! [B^e^g][Beg][Beg]!ped-up! | %31
!ped! .[=ca] z/!ped-up!!ped! .[_d_b] z/!ped-up!!ped! .[=d=b] z/!ped-up!!ped! .[_e=c'] z/!ped-up!!ped! .[=e^c'] z/!ped-up!!ped! .[=fd'] z/!<)! || %32
[M:2/4]"_T.S.P.""^rinforzando velocissimo"!8va(! ([^gbd'^e']!ped-up! z) !>!b'/4^a'/4=a'/4g'/4 z | %33
 !>!^e'/4=e'/4^d'/4=d'/4!8va)! z !>!b/4^a/4=a/4g/4 z | ^e/4=e/4^d/4=d/4 z B/4^A/4=A/4G/4 z || %35
[M:6/8] .^E.=E.^D z z2 |!pp! z{/D} (.C z) z{/A} .G z | z{/d} .c z z{/a} .g z | %38
 z!ped!{/g} (.b z)!ped-up! z!ped!{/^e} .g z!ped-up! | %39
"^poco rallent." z!ped!{/g} (.b z)!ped-up! z!ped!{/!fermata!^e} .!fermata!g"^dim." z!ped-up! | %40
!ped! z{/[cf]} .a z!ped-up!!ped! z{/F} .A z!ped-up! | %41
!ped! z{/F} .A z z!ped-up![K:bass]{/F,} (.A, z) | %42
!ped! z{/C,} .C z!ped-up!!ped! z{/F,} .C z!ped-up! | %43
!ped! z{/A,} .^B, z!ped-up!!ped! z[K:treble]{/G} (.c z)!ped-up! | %44
!ped! z{/[cf]} .a z!ped-up!!ped! z{/F} .A z!ped-up! | %45
!ped! z{/F} .A z z[K:bass]{/F,} .A, z!ped-up! |!ped! z{/C,} .C z!ped-up!!ped! z{/F,} .C z!ped-up! | %47
!ped! z{/A,} .^B, z!ped-up!!ped! z[K:treble]{/G} (.c z)!ped-up! | %48
"^sotto"!ped! z{/A} .c z z{/A} .c z!ped-up! |!ped! z{/F} .A z z!ped-up! (!tenuto!^A/4.d/4) z/ z | %50
!ped! z{/B} .^d z!ped-up!!ped! z{/B} .d z!ped-up! | %51
!ped! z{/G} .B z z!ped-up!!ped! (!tenuto!^B/4.e/4 z/) z!ped-up! | %52
!ped! z{/c} .^e z!ped-up!!ped! z({/^B} .^d z)!ped-up! | %53
!ped! z{/c} .^e z!ped-up!!ped! z({/^B} .^d z)!ped-up! | %54
!ped! z{/B} .^e z!ped-up!"^rinforzando"!ped! z{/c} .=f z!ped-up! |!ped! z{/c} .=f z z2 z!ped-up! || %56
[K:Bb][M:9/8]!ped! [FBd]"^giocoso non legato"[FBd][FBd]!ped-up!!ped! [FBd][FBd][FBd]!ped-up!!ped! .[FBd] z z!ped-up! | %57
!ped! [FGB=e][FGBe][FGBe]!ped-up!!ped! .[FAc_e] z z!ped-up! z2 z | %58
!ped! [FBd][FBd][FBd]!ped-up!!ped! [FBd][FBd][FBd]!ped-up!!ped! .[FBd] z z!ped-up! | %59
!ped! [FGB=e][FGBe][FGBe]!ped-up!!ped! .[FAc_e] z z!ped-up! z2 z | %60
!ped! [Bdf][Bdf][Bdf]!ped-up!!ped! [Adf][Adf][Adf]!ped-up!!ped! [_Adf][Adf][Adf]!ped-up! | %61
!ped! !arpeggio!.[F=Bd_a] z z!ped-up!!ped! !arpeggio!.[G=Bdf] z z!ped-up! z2 z | %62
!ped! [=B^d^f][Bdf][Bdf]!ped-up!!ped! [^Adf][Adf][Adf]!ped-up!!ped! [=Adf][Adf][Adf]!ped-up! | %63
!ped! !arpeggio!.[^Fc_ea] z z!ped-up!!ped! !arpeggio!.[^Gc_e^f] z z!ped-up! z2 z | %64
!ped! [c=eg][ceg][ceg]!ped-up!!ped! [ceg][ceg][ceg]!ped-up!!ped! .[cfa] z z!ped-up! | %65
!ped! [c=eg][ceg][ceg]!ped-up!!ped! [ceg][ceg][ceg]!ped-up!!ped! .[cfa] z z!ped-up! | %66
!ped! [c=eg][ceg][ceg]!ped-up!!ped! [cf_a][cfa][cfa]!ped-up!!ped! [c^f=a][cfa][cfa]!ped-up! | %67
!ped! .[^c_b]"_molto marcato" z/!ped-up!!ped! .[d=b] z/!ped-up!!ped! .[_ec'] z/!ped-up!!ped! .[=e^c'] z/!ped-up!!ped! .[^ed'] z/!ped-up!!ped! (.[^f_e'] z/!ped-up! || %68
[M:2/4]"_T.S.P."!8va(! .[ac'e'^f'])"^rinforzando velocissimo" z !>!c''/4=b'/4_b'/4a'/4 z | %69
 !>!^f'/4=f'/4=e'/4_e'/4 x !>!c'/4=b/4_b/4a/4 x!8va)! | !>!^f/4=f/4=e/4_e/4 x !>!c/4=B/4_B/4A/4 x | %71
 (3.^F"^leggiero".=F!ped!.=E x2!ped-up! | (3._E.D!ped!.^C x2!ped-up! | %73
[K:bass] (3.C.=B,._B,"^più dimin."!ped! z2!ped-up! |!ped! z4!ped-up!!ped!!ped-up! | %75
!ped! z4!ped-up!!ped!!ped-up! ||[M:6/8]!pp! (.D.B,.G,) .E,.G,.A, | .B,.G,.D, .B,,.G,.E, | %78
 .D,.^C,.D, .E,.F,.E, | .D,(.^C,.D,)!<(!!ped! (.^F,.A,.^C)!<)! | .D!ped-up!.B,.G, .E,.G,.A, | %81
 .B,.G,.D, .B,,.G,.E, | .D,.^C,.D, .E,.F,.E, |!ped! .D,(.A,,.^F,,!pp! (.D,,!ped-up!.D,,).D,,) | %84
 D,,D,,D,, D,,D,,D,, | D,,D,,D,, D,,D,,D,, | D,,D,,D,, D,,D,,D,, | D,,D,,D,, D,,D,,D,, | %88
 D,,D,,D,, D,,D,,D,, | D,,D,,D,, D,,D,,D,, | D,,D,,D,, D,,D,,D,, | D,,D,,D,, D,,D,,D,, | %92
 D,,D,,D,, E,,E,,E,, | D,,D,,D,, C,,C,,C,, | D,,D,,D,, E,,E,,E,, | D,,D,,D,, C,,C,,C,, | %96
!ped! D,,"_ad libitum"D,,D,, E,,E,,E,,!ped-up! | D,,D,,D,, E,,E,,E,, | ^F,,F,,F,,!<(! A,,A,,A,, | %99
 B,,!<)!B,,B,,!>(! A,,A,,A,,!>)! | ^F,,F,,F,, E,,E,,E,, | E,,E,,E,, D,,D,,D,, || %102
[K:A]"_T.S.P."!ped! (C,,C,,)C,,!ped-up!!ped! C,,C,,C,,!ped-up! |!ped! C,,C,,C,, C,,C,,C,,!ped-up! | %104
"_simile"!ped! C,,C,,C,, C,,C,,C,,!ped-up! |!ped! C,,C,,C,, C,,C,,C,,!ped-up! | %106
!ped! C,,C,,C,, C,,C,,C,,!ped-up! |!ped! C,,C,,C,, C,,C,,C,,!ped-up! | %108
!ped! C,,C,,C,, C,,C,,C,,!ped-up! |!ped! C,,C,,C,, C,,C,,C,,!ped-up! | %110
!ped! .C,, .^E,.C, .C,, .E,.C,!ped-up! |!ped! .C,, .F,.D, .C,, .F,.D,!ped-up! | %112
!ped! .C,, .F,.^D, .C,, .^^F,.D,!ped-up! |!ped! .C,, .G,.E, .C,, .G,.E,!ped-up! | %114
!ped! .C,, .A,.^E,!ped-up!!ped! .^F,._B,.F,!ped-up! | %115
!ped! .C,, .B,.=G,!ped-up!!ped! .^G,.^B,.G,!ped-up! | %116
!ped! !tenuto!A,.C!ped-up!!ped! !tenuto!_B,.D!ped-up!!ped! !tenuto!=B,.^D!ped-up! | %117
!ped! !tenuto!^B,.E!ped-up!!ped! !tenuto!C.^E!ped-up![K:treble] !tenuto![DF].[^D=G] | %118
"_ad libitum"!ped! .[E^G].[^EA].[F^A] .[=GB].[^G^B].[=Ac] | %119
 .[^Ad].[B^d].[^Be] .[c^e] z z!ped-up! || %120
[K:F#][M:9/8][K:bass]!ped! [F,,F,][K:treble] [CFA][CFA]!ped-up!!ped! [CFA][CFA][CFA]!ped-up!!ped! [DFB] z z!ped-up! | %121
[K:bass]!<(!!ped! [F,B,D][F,B,D][F,B,D]!<)!!ped-up!!ped! [B,EG] z z z2 z!ped-up! | %122
!ped! [F,,F,][K:treble] [CFA][CFA]!ped-up!!ped! [CFA][CFA][CFA]!ped-up!!ped! [DFB] z z!ped-up! | %123
[K:bass]!<(!!ped! [F,B,D][F,B,D][F,B,D]!<)!!ped-up!!ped! [B,EG] z z z2"^sempre" z!ped-up! | %124
!ped! !>!F,[K:treble] [CFA][CFA]!ped-up![K:bass]!ped! !>!^E,[K:treble] [CFA][CFA]!ped-up![K:bass]"_T.S.P."!ped! !>!=E,[K:treble] [CFA][CFA]!ped-up! | %125
!ped! .[=D^GB] z z[K:bass] !arpeggio![=E,B,=DG] z z!ped-up!!ped!{/=F} .=E/ x/ x x!ped-up! | %126
!ped! !>!=G,[K:treble] [=D=GB][DGB]!ped-up![K:bass]!ped! !>!^F,[K:treble] [DGB][DGB]!ped-up![K:bass]"_T.S.P."!ped! !>!=F,[K:treble] [DGB][DGB]!ped-up! | %127
!ped! .[C^^FA] z z[K:bass] !arpeggio![D,A,C^^F] z z!ped-up!!ped!{/=E} .D/ x/ x x!ped-up! | %128
"_T.S.P."!ped! [^G,,^G,][K:treble] [^DG^B][DGB]!ped-up!!ped! [DGB][DGB][DGB]!ped-up!!ped! [^EGc] z z!ped-up! | %129
[K:bass]!ped! [^G,,^G,][K:treble] [^DG^B][DGB]!ped-up!!ped! [DGB][DGB][DGB]!ped-up!!ped! [^EGc] z z!ped-up! | %130
!ped! z [DG^B][DGB]!ped-up!!ped! z [DFB][DFB]!ped-up!!ped! z [=E^^Fc][EFc]!ped-up! | %131
!ped! z [^EG=c][EGc]!ped-up!!ped! z [F=A^d][FAd]!ped-up!!ped! z [^^F^A=e][FAe]!ped-up! | %132
"_T.S.P."!ped! C [GB^e][GBe] [GBe][GBe][GBe] [GBe] z z!ped-up! | %133
"^marc."!<(!!ped! .C.F.A .c.f.a!<)!!ped-up!!ped! .=a.f.^B!ped-up! | %134
!ped! C [GB^e][GBe] [GBe][GBe][GBe] [GBe] z z!ped-up! | %135
!<(!!ped! .C.F.A .c.f.a!<)!!ped-up!!ped! .=a.f.^B!ped-up! | %136
"^rinforzando molto"!ped! C [G=Be][GBe] [GBe] z z!ped-up!"_continuo"!ped! d'/c'/b/a/g/f/!ped-up! | %137
 !>!b/a/g/f/e/d/ g/f/e/d/c/B/ d/c/B/A/G/F/ | B/A/G/F/E/D/ G/F/E/D/C/B,/[K:bass] D/C/B,/A,/G,/F,/ || %139
[M:6/8] B,/A,/G,/F,/E,/F,/ G,/A,/B,/C/D/C/ | B,/A,/G,/F,/E,/D,/ C,/B,,/A,,/G,,/F,,/(E,,/ | %141
 .[E,,E,]).[D,,D,].[C,,C,] .[B,,,B,,].[A,,,A,,].[G,,,G,,] | .[F,,,F,,] z z (F,,F,,F,,) | %143
 =G,,G,,G,, =E,,E,,E,, | F,,F,,F,,!ped! C,,C,,C,,!ped-up! | =D,,D,,D,, B,,,B,,,B,,, | %146
 (C,,C,,C,,)!ped! (F,,F,,F,,)!ped-up! |"^sempre più piano" =G,,G,,G,, =E,,E,,E,, | %148
 F,,F,,F,,!ped! C,,C,,C,,!ped-up! | =D,,D,,D,, B,,,B,,,B,,, | C,,C,,C,,!ped! F,,F,,F,,!ped-up! | %151
 =D,,D,,D,, B,,,B,,,B,,, | C,,C,,C,,!ped! F,,F,,F,,!ped-up! | =D,,D,,D,, B,,,B,,,B,,, | %154
 (=D,,D,,D,,) (D,,D,,)D,, |!ped! B,,,B,,,B,,,!ped-up! B,,,B,,,B,,, | %156
"_T.S.P."!ped! F,,,F,,,F,,, F,,,F,,,F,,,!ped-up! |!ped! F,,,(F,,,F,,,) (F,,,F,,,)F,,,!ped-up! | %158
!ped! F,,,F,,,F,,, F,,,F,,,F,,,!ped-up! |!ped! F,,,(F,,,F,,,) (F,,,F,,,)F,,,!ped-up! | %160
!ped! F,,,F,,,F,,, F,,,F,,,F,,,!ped-up! |!ped! F,,,F,,,F,,, F,,,"^legato"=D,,F,,!ped-up! | %162
!ped! F,,,C,,F,,!ped-up!!ped! F,,,=D,,F,,!ped-up! | %163
!ped! F,,,C,,F,,!ped-up!!ped! F,,,=D,,F,,!ped-up! |!ped! F,,,C,,F,, .A,,.C,.F, | %165
 .A,.C[K:treble].F .A.c.A | .c z z .f z z | .a z z!ped-up! !fermata!z2 z |] %168
V:3
 x6 | x6 | x6 | x6 || x6 | x6 | x6 | x6 | x6 | x6 | x6 | x6 | x6 | x6 | x6 | x6 | x6 | x6 | x6 | %19
 x6 ||[M:9/8]!8va(! c' z (c'/b/ a) z (a/g/ f) z (g/a/ | b) z (b/g/ f) z x4 | %22
 c' z (c'/b/ a) z (a/g/ f) z (g/a/ | b) z (b/g/ f) z f/e/ x x2 | c' x a/b/ c' x ^b/c'/ c' x b/c'/ | %25
 c' x8 | d' x _b/=c'/ d' x d'/^c'/ d' x d'/c'/ | d' x8 | ^d' x d'/c'/ b x4 b/c'/ | %29
 ^d' x d'/c'/ b x4 b/c'/ | ^d' x2 e' x2 ^e' x2 | x9!8va)! ||[M:2/4]!8va(! x4 | x2!8va)! x2 | x4 || %35
[M:6/8] x6 | x6 | x6 | x6 | x6 | x6 | x6 | x6 | x6 | x6 | x6 | x6 | x6 | x6 | x6 | x6 | x6 | x6 | %53
 x6 | x6 | x6 ||[K:Bb][M:9/8]!8va(! d' z (d'/c'/ b) z (b/a/ g) z (a/b/ | c') z (c'/a/ g) x x4 | %58
 d' z (d'/c'/ b) z (b/a/ g) z (a/b/ | c') z (c'/a/ g) x x4 | %60
 d' z (b/c'/ d') z (d'/^c'/ d') z (d'/c'/ | d') x8 | ^d' z (=b/^c'/ d') z (^^c'/d'/ d') z (c'/d'/ | %63
 e') x8 | =e' z (e'/d'/ c') z c'/=b/ x3 | =e' z (e'/d'/ c') z c'/=b/ x3 | =e' z z f' z z ^f' z z | %67
 x9 ||[M:2/4] x4 | x4!8va)! | x4 | x4 | x4 | x2[K:bass] x2 | x4 | x4 ||[M:6/8][K:treble] x6 | x6 | %78
 x3[K:bass] x3 | x6 | x3[K:treble] x3 | x6 | x3[K:bass] x3 | x6 | x6 | x6 | x6 | x6 | x6 | x6 | %90
 x6 | x6 | x6 | x3[K:treble] x3 | x6 | x6 | x3!8va(! x3 | x6!8va)! | x6 | x6 | x6 | x4!8va(! x2 || %102
[K:A] x6!8va)! | x6 | x6 | x6 | x6 | x6 | x2[K:bass] x3[K:treble] x | x2[K:bass] x3[K:treble] x | %110
 x6 | x6 | x6 | x6 | x6 | x6 | x6 | x6 | x3!8va(! x3 | x6 || %120
[K:F#][M:9/8] a z (a/g/ f) z (f/e/ d) z (d/e/ | g) z (g/f/!8va)! !^!d) x x4 | %122
!8va(! a z (a/g/ f) z (f/e/ d) z (d/e/ | g) z (g/f/!8va)! !^!d) x x4 | %124
!8va(! a z (f/g/ a) z (^^g/a/ a) z (g/a/ | a) x8!8va)! | %126
!8va(! b z (=g/=a/ b) z (b/^a/ b) z (b/^a/ | b) x8!8va)! | %128
!8va(! ^b z (b/a/ g) z (g/^^f/ e) z g/a/ | ^b z (b/a/ g) z (g/^^f/ e) z (g/a/ | %130
 !>!^b) z z !>!b z z !>!c' z z | !>!=d' z z !>!^d' z z !>!=e' z z | x9 | x9 | x9 | x9 | x9 | %137
 x6!8va)! x3 | x9 ||[M:6/8] x6 | x3!8va(! x3 | x6 | x!8va)! x5 | x6 | x6 | x6 | x6 | x6 | x6 | x6 | %150
 x6 | x3!8va(! x3 | x6 | x6 | x6 | x6 | x6!8va)! | x6 | x6 | x6 | x3[K:bass] x3 | x6 | x6 | x6 | %164
 x6 |[K:treble] x6 |!8va(! x6 | x!8va)! x5 |] %168
V:4
 x6 | x6 | x6 | x6 || x6 | x4[K:bass] x2 | x6 | x4[K:treble] x2 | x6 | x4[K:bass] x2 | x6 | %11
 x4[K:treble] x2 | x6 | x6 | x6 | x6 | x6 | x6 | x6 | x6 ||[M:9/8] x9 | x9 | x9 | x9 | x9 | x9 | %26
 x9 | x9 | x9 | x9 | x9 | x9 ||[M:2/4]!8va(! x4 | x!8va)! x3 | x4 ||[M:6/8] x6 | x6 | x6 | x6 | %39
 x6 | x6 | x4[K:bass] x2 | x6 | x4[K:treble] x2 | x6 | x4[K:bass] x2 | x6 | x4[K:treble] x2 | x6 | %49
 x6 | x6 | x6 | x6 | x6 | x6 | x6 ||[K:Bb][M:9/8] x9 | x9 | x9 | x9 | x9 | x9 | x9 | x9 | x9 | x9 | %66
 x9 | x9 ||[M:2/4]!8va(! x4 | x4!8va)! | x4 | x4 | x4 |[K:bass] x4 | x4 | x4 ||[M:6/8] x6 | x6 | %78
 x6 | x6 | x6 | x6 | x6 | x6 | x6 | x6 | x6 | x6 | x6 | x6 | x6 | x6 | x6 | x6 | x6 | x6 | x6 | %97
 x6 | x6 | x6 | x6 | x6 ||[K:A] x6 | x6 | x6 | x6 | x6 | x6 | x6 | x6 | x6 | x6 | x6 | x6 | x6 | %115
 x6 | x6 | x4[K:treble] x2 | x6 | x6 ||[K:F#][M:9/8][K:bass] x[K:treble] x8 |[K:bass] x9 | %122
 x[K:treble] x8 |[K:bass] x9 | x[K:treble] x2[K:bass] x[K:treble] x2[K:bass] x[K:treble] x2 | %125
 x3[K:bass] x6 | x[K:treble] x2[K:bass] x[K:treble] x2[K:bass] x[K:treble] x2 | x3[K:bass] x6 | %128
 x[K:treble] x8 |[K:bass] x[K:treble] x8 | G,2 z =A,2 z ^A,2 z | B,2 z ^B,2 z C2 z | x9 | x9 | x9 | %135
 x9 | x9 | x9 | x6[K:bass] x3 ||[M:6/8] x6 | x6 | x6 | x6 | x6 | x6 | x6 | x6 | x6 | x6 | x6 | x6 | %151
 x6 | x6 | x6 | x6 | x6 | x6 | x6 | x6 | x6 | x6 | x6 | x6 | x6 | x6 | x2[K:treble] x4 | x6 | x6 |] %168

